!!!!SEGMENT: pl-wnifc--13846--001-136_anonim--piesni-polskie-i-ruskie-ludu-galicyjskiego-136-oj-haj-maty.krn
!!!kernsource:
!!!cenid: 18xx:3358
!!!COM: Anonim
!!!COM-rismID: pe30004985
!!!CDT:
!!!CNT:
!!!GTL: Pieśni polskie i ruskie ludu galicyjskiego
!!!OTL: 136. Oj haj, maty
!!!OMV: 136
!!!PDT: 1833
!!!AGN:
!!!YEC: Copyright 2022 Narodowy Instytut Fryderyka Chopina (https://polishscores.org)
!!!YEM: License CC-BY-4.0 (https://creativecommons.org/licenses/by/4.0)
!!!SMS-siglum: PL-Wnifc
!!!SMS-shelfmark: 13846
!!!SMS-shelfwork: 001-136 G
!!!SMS-variant:
!!!SMS-altvar:
!!!NIFC-rismSourceID: 1001036701
!!!NIFC-rismChildID: 1001039643
!!!NIFC-islandoraID: nifc:210326
!!!URL-pdf-islandora: https://repozytorium.nifc.pl/islandora/object/nifc%3A210326/datastream/PDF/view
!!!URL-scan:
!!!IIIF:
!!!ONB-nifc:
!!!OMD: Kołomyika
!!!AIN: 1 piano 1 vox
!!!key:
**kern	**kern	**dynam	**kern	**text
*part2	*part2	*	*part1	*
*staff3	*staff2	*	*staff1	*
*I"Fortepian	*I"Fortepian	*	*I"Głos	*
*Ipiano	*Ipiano	*	*Ivox	*
*ICklav	*ICklav	*	*ICvox	*
*IGacmp	*IGacmp	*	*IGsolo	*
*clefF4	*clefG2	*	*clefG2	*
*k[b-]	*k[b-]	*	*k[b-]	*
*d:	*d:	*	*d:	*
*M2/4	*M2/4	*	*M2/4	*
=1	=1	=1	=1	=1
*tremolo	*	*	*	*
!	!	!	!LO:TX:a:t=E.229.	!
.	8qa/	.	.	.
!LO:TX:b:t=....	!	!	!	!
8DD/L 8AA/ 8D/	(16aa\^<LL	.	(16a/LL	Oj
.	16gg\J)	.	16g/JJ)	.
8DD/ 8AA/ 8D/	8ff\^<|>J	.	8f/	haj,
8DD/ 8AA/ 8D/	(16a\LL 16ff\	.	(16f/LL	ma-
.	16ee\J)	.	16e/JJ)	.
8DD/J 8AA/ 8D/	8f\^<|>J 8ff\	.	8f/	-ty,
=2	=2	=2	=2	=2
.	8qa/	.	.	.
!LO:TX:b:t=....	!	!	!	!
8DD/L 8AA/ 8D/	(16aa\^LL	.	16a/LL	oj
.	16gg\J)	.	16g/JJ	.
8DD/ 8AA/ 8D/	8ff\J	.	8f/	haj,
8DD/ 8AA/ 8D/	(16a\LL 16ff\	.	16f/LL	ma-
.	16ee\J)	.	16e/JJ	.
8DD/J 8AA/ 8D/	8a\^J 8ff\	.	8f/	-ty,
!!LO:LB:g=original
=3	=3	=3	=3	=3
.	8qa/	.	.	.
!LO:TX:b:t=....	!	!	!	!
8DD/L 8AA/ 8D/	(16aa\LL	.	(16a/LL	oj
.	16gg\JJ)	.	16g/JJ)	.
8DD/ 8AA/ 8D/	(16ff\LL	.	(16f/LL	haj
.	16ee\JJ)	.	16e/JJ)	.
8DD/ 8AA/ 8D/	8ff\	.	8f/	ze-
8DD/J 8AA/ 8D/	(16aa\LL	.	(16a/LL	-łe-
.	16gg#X\JJ)	.	16g#X/JJ)	.
*Xtremolo	*	*	*	*
=4	=4	=4	=4	=4
4DD|</ 4AA/ 4D/	(8.gg#X\^<L	.	(8.g#X/L	-neń-
*	*Xtuplet	*	*Xtuplet	*
!	!	!	!LO:TUP:b:problem=klamra łukowa	!
.	48ffn\LL	.	48fn/LL	.
.	48ee\	.	48e/	.
.	48dd\JJJ)	.	48d/JJJ)	.
4DD|</ 4AA/ 4D/	4dd\^	.	4d/	-ki,
!!LO:LB:g=original
=5	=5	=5	=5	=5
*tremolo	*	*	*	*
.	8qa/	.	.	.
!LO:TX:b:t=....	!	!	!	!
8AAA/L 8DD/ 8AA/	(16aa\LL	.	(16a/LL	oj
.	16ggn\)	.	16gn/JJ)	.
8AAA/ 8DD/ 8AA/	(16ff\	.	(16f/LL	po-
.	16ee\JJ)	.	16e/JJ)	.
8AAA/ 8DD/ 8AA/	8ff\L	.	8f/	-ji-
8AAA/J 8DD/ 8AA/	(16aa\^<L	.	(16a/LL	-chaw
.	16gg\JJ)	.	16g/JJ)	.
=6	=6	=6	=6	=6
!LO:TX:b:t=....	!	!	!	!
8AAA/L 8DD/ 8AA/	8ff\	f	8f/	na
8AAA/ 8DD/ 8AA/	(16aa\^<LL	.	(16a/LL	Ukra-
.	16gg\JJ)	.	16g/JJ)	.
8AAA/ 8DD/ 8AA/	(16ff\^<LL	.	(16f/LL	-i-
.	16ee\J)	.	16e/JJ)	.
8AAA/J 8DD/ 8AA/	8dd\^<|>J	.	8d/	-nu
*Xtremolo	*	*	*	*
!!LO:LB:g=original
=7	=7	=7	=7	=7
8AAA/L 8DD/ 8AA/	8ff\L	.	8f/	ko-
8DD/ 8AA/	(16aa\^<L	.	(16a/LL	-zak
.	16gg\JJ)	.	16g/JJ)	.
8AAA/	(16ff\^<LL	.	(16f/LL	mo-
.	16ee\)	.	16e/JJ)	.
8AAA/J 8AA/	(16dd\^<	.	(16d/LL	-ło-
.	16cc#X\JJ)	.	16c#X/JJ)	.
=8	=8	=8	=8	=8
4DD|</ 4AA/ 4D/	4dd\	.	4d/	-deń-
4DD|</ 4AA/ 4D/	8dd\	.	8d/	-ki.
.	8r	.	8r	.
!!LO:PB:g=original
=:|!	=:|!	=:|!	=:|!	=:|!
*-	*-	*-	*-	*-
!!!system-decoration: s1,{(s2,s3)}
!!!RDF**kern: < = below
!!!RDF**kern: > = above
!!!RDF**kern: | = vertical stroke
!!!ENC: Marta Chmielewska
!!!END: 2021-11-11
